icon/ir/rss-feed-squared.svg

<svg stroke-width="1.5" viewBox="0 0 24 24" fill="none" xmlns="http://www.w3.org/2000/svg" height="1em" width="1em">
  <path d="M12 17C12 14 10 12 7 12" stroke="currentColor" stroke-linecap="round" stroke-linejoin="round"/>
  <path d="M17 17C17 11 13 7 7 7" stroke="currentColor" stroke-linecap="round" stroke-linejoin="round"/>
  <path d="M7 17.01L7.01 16.9989" stroke="currentColor" stroke-linecap="round" stroke-linejoin="round"/>
  <path d="M21 8V16C21 18.7614 18.7614 21 16 21H8C5.23858 21 3 18.7614 3 16V8C3 5.23858 5.23858 3 8 3H16C18.7614 3 21 5.23858 21 8Z" stroke="currentColor" stroke-linecap="round" stroke-linejoin="round"/>
</svg>

<svg width="24" height="24" stroke-width="1.5" fill="none" xmlns="http://www.w3.org/2000/svg"><path d="M12 17c0-3-2-5-5-5M17 17c0-6-4-10-10-10M7 17.01l.01-.011" stroke="currentColor" stroke-linecap="round" stroke-linejoin="round"/><path d="M21 8v8a5 5 0 0 1-5 5H8a5 5 0 0 1-5-5V8a5 5 0 0 1 5-5h8a5 5 0 0 1 5 5Z" stroke="currentColor" stroke-linecap="round" stroke-linejoin="round"/></svg>
